src/pos-icons/chevron-right-box.svg

<svg height="24" viewBox="0 0 24 24" width="24" xmlns="http://www.w3.org/2000/svg"><path d="m19 3h-14a2 2 0 0 0 -2 2v14c0 1.11.9 2 2 2h14c1.11 0 2-.89 2-2v-14a2 2 0 0 0 -2-2m-9.29 15-1.42-1.41 4.59-4.59-4.59-4.59 1.42-1.41 6 6z"/></svg>

<?xml version="1.0" encoding="UTF-8"?><!DOCTYPE svg PUBLIC "-//W3C//DTD SVG 1.1//EN" "http://www.w3.org/Graphics/SVG/1.1/DTD/svg11.dtd"><svg xmlns="http://www.w3.org/2000/svg" xmlns:xlink="http://www.w3.org/1999/xlink" version="1.1" id="mdi-chevron-right-box" width="24" height="24" viewBox="0 0 24 24"><path d="M19,3H5A2,2 0 0,0 3,5V19C3,20.11 3.9,21 5,21H19C20.11,21 21,20.11 21,19V5A2,2 0 0,0 19,3M9.71,18L8.29,16.59L12.88,12L8.29,7.41L9.71,6L15.71,12L9.71,18Z" /></svg>
